X: 2039
T: Bore Baptist.
%R: bourr\'ee
B: Henry Playford "Apollo's Banquet", London 1687 (5th Edition)
F: https://archive.org/details/apollosbanquetco01rugg
Z: 2017 John Chambers <jc:trillian.mit.edu>
M: C|
L: 1/8
K: Bb
% - - - - - - - - - -
F2 |\
B2F2 F2Bc | d2B2 f3f |\
g3f fcBc | d4 zcde |\
f2B2A3B | c6 :: de |\
f2d2 g3a |
^f2 d4 (AB) |\
(cd)(cB) A3G | G4 zBcd |\
e4 zcde | f4 zfga |\
b2(de) c3B | B6 |]
% - - - - - - - - - -

%%sep 1 1 500
%%sep 1 1 500

